img/refresh.svg

<svg width="24" height="24" fill="none" xmlns="http://www.w3.org/2000/svg"><path d="M22 12c0 5.52-4.48 10-10 10s-8.89-5.56-8.89-5.56m0 0h4.52m-4.52 0v5M2 12C2 6.48 6.44 2 12 2c6.67 0 10 5.56 10 5.56m0 0v-5m0 5h-4.44" stroke="#fff" stroke-width="1.5" stroke-linecap="round" stroke-linejoin="round"/></svg>

<svg width="24" height="24" viewBox="0 0 24 24" fill="none" xmlns="http://www.w3.org/2000/svg">
<path d="M22 12C22 17.52 17.52 22 12 22C6.48 22 3.11 16.44 3.11 16.44M3.11 16.44H7.63M3.11 16.44V21.44M2 12C2 6.48 6.44 2 12 2C18.67 2 22 7.56 22 7.56M22 7.56V2.56M22 7.56H17.56" stroke="white" stroke-width="1.5" stroke-linecap="round" stroke-linejoin="round"/>
</svg>
